packages/foundations/assets/icons/functional/images/editing/pin_24.svg

<svg width="24" height="24" viewBox="0 0 24 24" fill="none" xmlns="http://www.w3.org/2000/svg">
<g clip-path="url(#clip0_2622_96)">
<path fill-rule="evenodd" clip-rule="evenodd" d="M14.2689 2.04835L21.9529 9.64335C22.1347 9.82211 22.2413 10.0636 22.251 10.3183C22.2608 10.5731 22.1728 10.822 22.0051 11.0141C21.8374 11.2062 21.6027 11.3269 21.3489 11.3517C21.0952 11.3765 20.8415 11.3034 20.6399 11.1474L19.8259 10.3524L16.4379 13.7084C16.7259 14.1324 16.9309 14.5804 17.0529 15.0504C17.4669 16.7504 16.9379 18.4804 15.4659 20.2383C14.8359 20.9893 14.2409 21.5864 13.8149 21.9314C13.6403 22.0727 13.4232 22.1511 13.1986 22.154C12.9741 22.1569 12.755 22.0841 12.5769 21.9474L7.96686 17.3954L3.53486 21.7833C3.35398 21.9619 3.1119 22.0649 2.85782 22.0713C2.60374 22.0778 2.35673 21.9873 2.167 21.8182C1.97726 21.6491 1.85903 21.4141 1.83635 21.1609C1.81366 20.9078 1.88821 20.6555 2.04486 20.4554L6.54486 15.9884L2.04486 11.5344C1.88288 11.3741 1.7805 11.1633 1.75467 10.9369C1.72885 10.7104 1.78113 10.482 1.90286 10.2894C2.15086 9.89835 3.07086 9.03735 3.68886 8.55135C5.30186 7.28135 6.97586 6.60935 8.65086 6.92635C9.23222 7.03835 9.78454 7.26805 10.2739 7.60135L13.6609 4.24935L12.9569 3.55235C12.778 3.37313 12.6738 3.13273 12.6652 2.87967C12.6567 2.62661 12.7445 2.37974 12.9109 2.18887C13.0772 1.998 13.3098 1.87735 13.5617 1.85127C13.8135 1.82519 14.0659 1.89562 14.2679 2.04835H14.2689ZM8.27586 8.89135C7.12086 8.66535 5.74486 9.30135 4.14686 10.8014L13.2059 19.7694C14.7119 18.1863 15.3589 16.8264 15.1469 15.6874C15.0329 14.9804 14.6359 14.7064 14.5329 14.5144L9.63486 9.65635C9.19686 9.22335 8.74786 8.98435 8.27586 8.89135ZM15.0809 5.65635L11.7589 8.94535L15.0809 12.2334L18.4029 8.94535L15.0809 5.65635Z" fill="#282D37"/>
</g>
<defs>
<clipPath id="clip0_2622_96">
<rect width="24" height="24" fill="white"/>
</clipPath>
</defs>
</svg>

<svg xmlns="http://www.w3.org/2000/svg" width="24" height="24" fill="none"><g clip-path="url(#a)"><path fill="#282D37" fill-rule="evenodd" d="m14.269 2.048 7.684 7.595a1 1 0 0 1-1.313 1.504l-.814-.795-3.388 3.356q.432.636.615 1.342.621 2.55-1.587 5.188c-.63.751-1.225 1.348-1.651 1.693a1 1 0 0 1-1.238.016l-4.61-4.552-4.432 4.388a1 1 0 0 1-1.49-1.328l4.5-4.467-4.5-4.454a1 1 0 0 1-.142-1.245C2.15 9.9 3.07 9.037 3.689 8.551 5.302 7.281 6.976 6.61 8.65 6.926a4.3 4.3 0 0 1 1.623.675L13.66 4.25l-.704-.697a1 1 0 0 1 1.31-1.504zM8.276 8.891q-1.732-.34-4.13 1.91l9.06 8.968q2.26-2.374 1.94-4.082c-.113-.707-.51-.98-.613-1.173L9.635 9.656c-.438-.433-.887-.672-1.36-.765m6.805-3.235-3.322 3.29 3.322 3.287 3.322-3.288z" clip-rule="evenodd"/></g><defs><clipPath id="a"><path fill="#fff" d="M0 0h24v24H0z"/></clipPath></defs></svg>
